X:1
T:Title
%%score { ( 1 3 ) | ( 2 4 ) }
L:1/8
Q:1/4=100
M:4/4
K:D
V:1 treble nm="Grand Piano"
V:3 treble 
V:2 bass 
V:4 bass 
V:1
 FFF[EG] [FA]2 [DF]2 | [EG][EG][EG][DF] [CE]4 | DEF[EG] [FA]2 [Fd]2 | [Ec]2 [DB]2 [CA]4 | %4
w: Samuel~W.~Beazley * * * * *||||
 FFF[EG] [FA]2 [DF]2 | [EG][EG][EG][DF] [CE]4 | z4 z2 d2 |[M:7/8] F2 [CE]2 D3 |[M:1/4] A>F | %9
w: |||||
[M:4/4] A6 z2 | d6 d2 | cccc c2 B2 | A6 z2 | A6 z2 | d6 z2 | [Gc][Gc][Gc][Gc] [GB]2 [Gc]2 | %16
w: |||||||
[M:3/4] d6 |] %17
w: |
V:2
 [D,A,D][D,A,D][D,A,D][D,A,] [D,D]2 [D,A,]2 | [A,,A,][A,,A,][A,,A,][A,,A,] [A,,A,]4 | %2
 [D,F,][D,G,D][D,A,D][D,A,] [D,D]2 [D,A,]2 | [E,^G,]2 [E,G,]2 [A,,A,]4 | %4
 [D,A,D][D,A,D][D,A,D][D,A,] [D,D]2 [D,A,]2 | [A,,A,][A,,A,][A,,A,][A,,A,] [A,,A,]4 | z4 z2 D2 | %7
[M:7/8] [A,D]2 [A,,G,]2 [D,F,]3 |[M:1/4] z2 |[M:4/4] z2 [D,D]>[D,D] [D,D]2 z2 | %10
 z2 [G,B,]2 [D,A,]2 [B,,B,]2 | [E,A,E][E,A,E][E,A,E][E,A,E] [E,^G,E]2 [E,G,D]2 | z2 CB, A,2 z2 | %13
 z2 [D,D]>[D,D] [D,D]2 z2 | z2 [G,B,]2 [D,A,]2 [D,A,]2 | %15
 [A,,A,][A,,A,][A,,A,][A,,A,] [A,,A,]2 [A,,A,]2 |[M:3/4] A,2 B,B, A,2 |] %17
V:3
 x8 | x8 | x8 | x8 | x8 | x8 | DEFG A2 z B, |[M:7/8] x7 |[M:1/4] x2 |[M:4/4] z2 F>F F2 d2 | %10
 z2 G2 F2 F=F | x8 | [A,C]2 ED C2 A>F | z2 F>F F2 d2 | z2 G2 F2 [Fd]2 | x8 |[M:3/4] F2 GG F2 |] %17
V:4
 x8 | x8 | x8 | x8 | x8 | x8 | [D,F,][D,G,D][D,A,D][E,A,C] [F,A,D]2 [F,A,]G, |[M:7/8] x7 | %8
[M:1/4] x2 |[M:4/4] x8 | x8 | x8 | A,,6 z2 | x8 | x8 | x8 |[M:3/4] D,6 |] %17

